icons/4_Outdated/Ubiquiti v1.svg

<svg xmlns="http://www.w3.org/2000/svg" width="1024" height="1024" fill="none">
   <g clip-path="url(#a)">
      <path fill="#728DBE" d="M512 1024c282.77 0 512-229.23 512-512S794.77 0 512 0 0 229.23 0 512s229.23 512 512 512Z"/>
      <path fill="#fff" d="M588.6 385.002c0-20.993 6.906-40.507 20.72-58.54 13.813-18.033 49.706-27.033 107.68-27v218.54l-9.91 31.93a212.897 212.897 0 0 1-18.92 43.69 144.776 144.776 0 0 1-26.58 33.49 136.567 136.567 0 0 1-34.46 23.29 175.848 175.848 0 0 1-42.13 13.53 217.463 217.463 0 0 0 3.61-38.58l-.01-240.35Zm-204.6-60.8h25.69v24.8H384v-24.8Zm25.69 37.69h25.71v24.85h-25.67l-.04-24.85ZM384 393.382h25.7v24.85H384v-24.85Zm-25.67 37.27H384v25.27h-25.64l-.03-25.27ZM307 298.922h25.67v25.28H307v-25.28Zm128.4 326.43c0 21.58 3.98 40.357 11.94 56.33 7.96 15.973 16.75 29.277 26.37 39.91 9.6 10.667 18.383 18.58 26.35 23.74l11.94 7.75c-32.127 0-60.884-4.507-86.27-13.52-25.387-9.013-46.867-21.58-64.44-37.7a163.14 163.14 0 0 1-40.32-57c-9.334-21.893-14-45.56-14-71v-205.75h25.67v137.49h25.7v-24.83H384v55.43h25.69v-93.13h25.71v182.28Zm94.6 51.89c23.733.88 45.513-.897 65.34-5.33a163.227 163.227 0 0 0 53.38-22 148.894 148.894 0 0 0 40.78-39.48c11.413-16.1 20.573-35.39 27.48-57.87v21.34c0 24.247-4.13 46.793-12.39 67.64a159.646 159.646 0 0 1-36.28 55c-15.914 15.826-35.287 28.617-58.12 38.37-22.834 9.753-48.807 15.517-77.92 17.29l-15.33-8c-1.194-.88-11.104-8.643-29.73-23.29-18.627-14.647-31.394-36.747-38.3-66.3a151.78 151.78 0 0 0 35.38 15.3c13.366 4 28.603 6.443 45.71 7.33Zm-171.64-327.77h25.24v24.85h-25.24v-24.85Z"/>
   </g>
   <defs>
      <clipPath id="a">
         <path fill="#fff" d="M0 0h1024v1024H0z"/>
      </clipPath>
   </defs>
</svg>

<svg width="1024" height="1024" viewBox="0 0 1024 1024" fill="none" xmlns="http://www.w3.org/2000/svg">
<g clip-path="url(#clip0_3_710)">
<path d="M512 1024C794.77 1024 1024 794.77 1024 512C1024 229.23 794.77 0 512 0C229.23 0 0 229.23 0 512C0 794.77 229.23 1024 512 1024Z" fill="#728DBE"/>
<path d="M588.6 385.002C588.6 364.009 595.506 344.495 609.32 326.462C623.133 308.429 659.026 299.429 717 299.462V518.002L707.09 549.932C702.437 565.157 696.09 579.812 688.17 593.622C681.016 606.039 672.059 617.326 661.59 627.112C651.36 636.589 639.738 644.444 627.13 650.402C613.712 656.668 599.557 661.214 585 663.932C587.349 651.205 588.557 638.294 588.61 625.352L588.6 385.002ZM384 324.202H409.69V349.002H384V324.202ZM409.69 361.892H435.4V386.742H409.73L409.69 361.892ZM384 393.382H409.7V418.232H384V393.382ZM358.33 430.652H384V455.922H358.36L358.33 430.652ZM307 298.922H332.67V324.202H307V298.922ZM435.4 625.352C435.4 646.932 439.38 665.709 447.34 681.682C455.3 697.655 464.09 710.959 473.71 721.592C483.31 732.259 492.093 740.172 500.06 745.332L512 753.082C479.873 753.082 451.116 748.575 425.73 739.562C400.343 730.549 378.863 717.982 361.29 701.862C343.894 685.994 330.139 666.549 320.97 644.862C311.636 622.969 306.97 599.302 306.97 573.862V368.112H332.64V505.602H358.34V480.772H384V536.202H409.69V443.072H435.4V625.352ZM530 677.242C553.733 678.122 575.513 676.345 595.34 671.912C614.299 667.809 632.375 660.359 648.72 649.912C664.719 639.489 678.564 626.085 689.5 610.432C700.913 594.332 710.073 575.042 716.98 552.562V573.902C716.98 598.149 712.85 620.695 704.59 641.542C696.453 662.198 684.096 680.931 668.31 696.542C652.396 712.368 633.023 725.159 610.19 734.912C587.356 744.665 561.383 750.429 532.27 752.202L516.94 744.202C515.746 743.322 505.836 735.559 487.21 720.912C468.583 706.265 455.816 684.165 448.91 654.612C460.005 661.195 471.894 666.336 484.29 669.912C497.656 673.912 512.893 676.355 530 677.242ZM358.36 349.472H383.6V374.322H358.36V349.472Z" fill="white"/>
</g>
<defs>
<clipPath id="clip0_3_710">
<rect width="1024" height="1024" fill="white"/>
</clipPath>
</defs>
</svg>
